img/svg/temp/arr-up.svg

<svg width="18" height="18" viewBox="0 0 18 18" fill="none" xmlns="http://www.w3.org/2000/svg">
<path d="M16.8 7.50765C16.8 7.83981 16.6782 8.17172 16.4347 8.42437C15.9496 8.92741 15.1656 8.92489 14.6837 8.41857L10.5001 4.50018V14.5002C10.5001 15.3286 9.82851 16.0002 9.00009 16.0002V16.0002C8.17166 16.0002 7.50009 15.3286 7.50009 14.5002V4.50018L3.5 8.41857C3.01806 8.92489 2.23433 8.92741 1.74925 8.42437C1.26416 7.92134 1.2615 7.10305 1.74344 6.59673L6.36975 1.54387C7.07175 0.806102 8.00589 0.399986 8.99999 0.399986C9.9941 0.399986 10.9282 0.806102 11.6302 1.54387L16.4402 6.59673C16.6801 6.84888 16.8 7.17826 16.8 7.50765Z" fill="#4A4D86"/>
</svg>

<svg width="18" height="18" fill="none" xmlns="http://www.w3.org/2000/svg"><path d="M16.8 7.508c0 .332-.122.664-.365.916-.485.503-1.27.5-1.751-.005L10.5 4.5v10a1.5 1.5 0 01-3 0v-10l-4 3.919a1.201 1.201 0 01-1.75.005 1.333 1.333 0 01-.007-1.827L6.37 1.544A3.606 3.606 0 019 .4c.994 0 1.928.406 2.63 1.144l4.81 5.053c.24.252.36.581.36.91z" fill="#4A4D86"/></svg>
